packages/bezier-icons/icons/book-cover.svg

<svg width="24" height="24" viewBox="0 0 24 24" fill="none" xmlns="http://www.w3.org/2000/svg">
<path fill-rule="evenodd" clip-rule="evenodd" d="M3 6C3 3.79086 4.79086 2 7 2H17C19.2091 2 21 3.79086 21 6V18C21 20.2091 19.2091 22 17 22H7C4.79086 22 3 20.2091 3 18V6ZM7 4C5.89543 4 5 4.89543 5 6V18C5 19.1046 5.89543 20 7 20V4ZM17 20H9V4H17C18.1046 4 19 4.89543 19 6V18C19 19.1046 18.1046 20 17 20ZM12 7C11.4477 7 11 7.44772 11 8C11 8.55228 11.4477 9 12 9H16C16.5523 9 17 8.55228 17 8C17 7.44772 16.5523 7 16 7H12Z" fill="#313234"/>
</svg>

<svg xmlns="http://www.w3.org/2000/svg" width="24" height="24" fill="none" viewBox="0 0 24 24"><path fill="#313234" fill-rule="evenodd" d="M3 6a4 4 0 0 1 4-4h10a4 4 0 0 1 4 4v12a4 4 0 0 1-4 4H7a4 4 0 0 1-4-4zm4-2a2 2 0 0 0-2 2v12a2 2 0 0 0 2 2zm10 16H9V4h8a2 2 0 0 1 2 2v12a2 2 0 0 1-2 2M12 7a1 1 0 1 0 0 2h4a1 1 0 1 0 0-2z" clip-rule="evenodd"/></svg>
